launcher/android/assets/skins/day/svg/db_pressed_filter_active.svg

<svg enable-background="new 0 0 88.00 76.00" height="76" viewBox="0 0 88 76" width="88" xmlns="http://www.w3.org/2000/svg" xmlns:xlink="http://www.w3.org/1999/xlink"><linearGradient id="a" gradientTransform="matrix(0 1 -1 0 -1.847375 -2.847375)" gradientUnits="objectBoundingBox" x1=".5" x2="6.19475" y1="-2.34737" y2="-2.34737"><stop offset=".427907" stop-color="#eeeaea"/><stop offset=".576744" stop-color="#fff" stop-opacity="0"/></linearGradient><radialGradient id="b" cx="44.4603" cy="64.0774" gradientUnits="userSpaceOnUse" r="25.8326"><stop offset="0" stop-opacity=".25098"/><stop offset="1" stop-color="#111" stop-opacity=".117647"/></radialGradient><g stroke-linejoin="round"><path d="m15.3763-1.15789h55.125c6.0751 0 11 4.92486 11 11.00001v55.24998c0 6.0751-4.9249 11-11 11h-55.125c-6.07513 0-11-4.9249-11-11v-55.24998c0-6.07515 4.92487-11.00001 11-11.00001z" fill="#c35e49" stroke="#000"/><path d="m69.7809-.803713h-53.8619c-5.489 0-10.01701 4.211223-10.66769 9.649033 1.28571 2.51198 3.85749 4.22598 6.82039 4.22598h61.9229c2.7386 0 5.1431-1.4643 6.5067-3.66956-.3978-5.70425-5.0455-10.205453-10.7204-10.205453z" fill="url(#a)" stroke-width=".2"/><path d="m20.1087 10.0446 43.7466 3.2488v5.3762l-43.7466-3.2488z" fill="#757576" stroke="#757576"/><path d="m22.97 57.3813 46.7416 9.2743-3.761 4.1179-46.7416-9.2743z" fill="url(#b)" stroke-width=".2"/><path d="m20.6174 25.4685 43.379 4.6029-.1938 5.6592-43.1852-4.8858z" fill="#deb73a" stroke="#deb73a"/><path d="m20.9807 38.8384 43.1653 6.0789v5.3762l-43.1653-6.0788z" fill="#757576" stroke="#757576"/><path d="m21.4894 52.3498 42.5839 7.2809v5.3763l-42.5839-7.281z" fill="#757576" stroke="#757576"/><path d="m63.8995 30.1657 3.6819-1.7921v5.5649l-3.5907 1.684z" fill="#e7c456" stroke="#e7c456"/><path d="m64.3277 44.955 3.5971-1.8393v5.2348l-3.5971 1.8392z" fill="#92929a" stroke="#92929a"/><path d="m64.037 59.6689 3.3064-2.4045v5.2348l-3.3064 2.4045z" fill="#92929a" stroke="#92929a"/><path d="m24.2658 23.9446 43.1975 4.0699-4.1937 2.104-42.8261-4.8103z" fill="#c4a02e" stroke="#c4a02e"/><path d="m63.928 13.3717 3.9968-.5677v5.2347l-3.9968.5678z" fill="#92929a" stroke="#92929a"/><g fill="#5e5e60" stroke="#5e5e60"><path d="m24.5198 9.34212 43.0734 3.31028-4.2391.5568-43.0734-3.31028z"/><path d="m24.725 36.9456 42.6935 5.9882-3.5429 1.7182-42.6935-5.9882z"/><path d="m24.9733 49.9196 42.0876 7.1654-3.2482 2.521-42.0876-7.1654z"/></g></g></svg>

﻿<?xml version="1.0" encoding="utf-8"?>
<!DOCTYPE svg PUBLIC "-//W3C//DTD SVG 1.1//EN" "http://www.w3.org/Graphics/SVG/1.1/DTD/svg11.dtd">
<svg xmlns="http://www.w3.org/2000/svg" xmlns:xlink="http://www.w3.org/1999/xlink" version="1.1" baseProfile="full" width="88" height="76" viewBox="0 0 88.00 76.00" enable-background="new 0 0 88.00 76.00" xml:space="preserve">
	<path fill="#C35E49" fill-opacity="1" stroke-linejoin="round" stroke="#000000" stroke-opacity="1" d="M 15.3763,-1.15789L 70.5013,-1.15789C 76.5764,-1.15789 81.5013,3.76697 81.5013,9.84212L 81.5013,65.0921C 81.5013,71.1672 76.5764,76.0921 70.5013,76.0921L 15.3763,76.0921C 9.30117,76.0921 4.3763,71.1672 4.3763,65.0921L 4.3763,9.84212C 4.3763,3.76697 9.30117,-1.15789 15.3763,-1.15789 Z "/>
	<linearGradient id="SVGID_Fill1_" gradientUnits="objectBoundingBox" x1="0.5" y1="-2.34737" x2="6.19475" y2="-2.34737" gradientTransform="rotate(90.000000 0.500000 -2.347375)">
		<stop offset="0.427907" stop-color="#EEEAEA" stop-opacity="1"/>
		<stop offset="0.576744" stop-color="#FFFFFF" stop-opacity="0"/>
	</linearGradient>
	<path fill="url(#SVGID_Fill1_)" stroke-width="0.2" stroke-linejoin="round" d="M 69.7809,-0.803713L 15.919,-0.803713C 10.43,-0.803713 5.90199,3.40751 5.25131,8.84532C 6.53702,11.3573 9.1088,13.0713 12.0717,13.0713L 73.9946,13.0713C 76.7332,13.0713 79.1377,11.607 80.5013,9.40174C 80.1035,3.69749 75.4558,-0.803713 69.7809,-0.803713 Z "/>
	<path fill="#757576" fill-opacity="1" stroke-linejoin="round" stroke="#757576" stroke-opacity="1" d="M 20.1087,10.0446L 63.8553,13.2934L 63.8553,18.6696L 20.1087,15.4208L 20.1087,10.0446 Z "/>
	<radialGradient id="SVGID_Fill2_" cx="44.4603" cy="64.0774" r="25.8326" gradientUnits="userSpaceOnUse">
		<stop offset="0" stop-color="#000000" stop-opacity="0.25098"/>
		<stop offset="1" stop-color="#111111" stop-opacity="0.117647"/>
	</radialGradient>
	<path fill="url(#SVGID_Fill2_)" stroke-width="0.2" stroke-linejoin="round" d="M 22.97,57.3813L 69.7116,66.6556L 65.9506,70.7735L 19.209,61.4992L 22.97,57.3813 Z "/>
	<path fill="#DEB73A" fill-opacity="1" stroke-linejoin="round" stroke="#DEB73A" stroke-opacity="1" d="M 20.6174,25.4685L 63.9964,30.0714L 63.8026,35.7306L 20.6174,30.8448L 20.6174,25.4685 Z "/>
	<path fill="#757576" fill-opacity="1" stroke-linejoin="round" stroke="#757576" stroke-opacity="1" d="M 20.9807,38.8384L 64.146,44.9173L 64.146,50.2935L 20.9807,44.2147L 20.9807,38.8384 Z "/>
	<path fill="#757576" fill-opacity="1" stroke-linejoin="round" stroke="#757576" stroke-opacity="1" d="M 21.4894,52.3498L 64.0733,59.6307L 64.0733,65.007L 21.4894,57.726L 21.4894,52.3498 Z "/>
	<path fill="#E7C456" fill-opacity="1" stroke-linejoin="round" stroke="#E7C456" stroke-opacity="1" d="M 63.8995,30.1657L 67.5814,28.3736L 67.5814,33.9385L 63.9907,35.6225L 63.8995,30.1657 Z "/>
	<path fill="#92929A" fill-opacity="1" stroke-linejoin="round" stroke="#92929A" stroke-opacity="1" d="M 64.3277,44.955L 67.9248,43.1157L 67.9248,48.3505L 64.3277,50.1897L 64.3277,44.955 Z "/>
	<path fill="#92929A" fill-opacity="1" stroke-linejoin="round" stroke="#92929A" stroke-opacity="1" d="M 64.037,59.6689L 67.3434,57.2644L 67.3434,62.4992L 64.037,64.9037L 64.037,59.6689 Z "/>
	<path fill="#C4A02E" fill-opacity="1" stroke-linejoin="round" stroke="#C4A02E" stroke-opacity="1" d="M 24.2658,23.9446L 67.4633,28.0145L 63.2696,30.1185L 20.4435,25.3082L 24.2658,23.9446 Z "/>
	<path fill="#92929A" fill-opacity="1" stroke-linejoin="round" stroke="#92929A" stroke-opacity="1" d="M 63.928,13.3717L 67.9248,12.804L 67.9248,18.0387L 63.928,18.6065L 63.928,13.3717 Z "/>
	<path fill="#5E5E60" fill-opacity="1" stroke-linejoin="round" stroke="#5E5E60" stroke-opacity="1" d="M 24.5198,9.34212L 67.5932,12.6524L 63.3541,13.2092L 20.2807,9.89892L 24.5198,9.34212 Z "/>
	<path fill="#5E5E60" fill-opacity="1" stroke-linejoin="round" stroke="#5E5E60" stroke-opacity="1" d="M 24.725,36.9456L 67.4185,42.9338L 63.8756,44.652L 21.1821,38.6638L 24.725,36.9456 Z "/>
	<path fill="#5E5E60" fill-opacity="1" stroke-linejoin="round" stroke="#5E5E60" stroke-opacity="1" d="M 24.9733,49.9196L 67.0609,57.085L 63.8127,59.606L 21.7251,52.4406L 24.9733,49.9196 Z "/>
</svg>
